cy/analytics-outline-alerted.svg

<svg viewBox="0 0 36 36" xmlns="http://www.w3.org/2000/svg" height="1em" width="1em">
  <path class="clr-i-outline--alerted clr-i-outline-path-1--alerted" d="M34 29a2 2 0 0 1-2 2H4a2 2 0 0 1-2-2V7a2 2 0 0 1 2-2h17.958l-1.172 2H4v22h28V15.357h2Z"/>
  <path d="m15.62 15.222-6.018 8.746-4.052-3.584 1.06-1.198 2.698 2.386 6.326-9.192 6.75 10.015 5.333-7.047h2.007l-7.416 9.797Z" class="clr-i-outline--alerted clr-i-outline-path-2--alerted"/>
  <path class="clr-i-outline--alerted clr-i-outline-path-3--alerted clr-i-alert" d="m26.854 1.144-5.72 9.86a1.28 1.28 0 0 0 1.1 2h11.45a1.28 1.28 0 0 0 1.1-2l-5.72-9.86a1.28 1.28 0 0 0-2.21 0Z"/>
  <path fill="none" d="M0 0h36v36H0z"/>
</svg>

<svg version="1.1" viewBox="0 0 36 36" preserveAspectRatio="xMidYMid meet" xmlns="http://www.w3.org/2000/svg" height="1em" width="1em">
  <path class="clr-i-outline--alerted clr-i-outline-path-1--alerted" d="M 34 29 C 34 30.105 33.105 31 32 31 L 4 31 C 2.895 31 2 30.105 2 29 L 2 7 C 2 5.895 2.895 5 4 5 L 21.958 5 L 20.786 7 L 4 7 L 4 29 L 32 29 L 32 15.357 L 34 15.357 Z"/>
  <path d="M 15.62 15.222 L 9.602 23.968 L 5.55 20.384 L 6.61 19.186 L 9.308 21.572 L 15.634 12.38 L 22.384 22.395 L 27.717 15.348 L 29.724 15.348 L 22.308 25.145 Z" class="clr-i-outline--alerted clr-i-outline-path-2--alerted"/>
  <path class="clr-i-outline--alerted clr-i-outline-path-3--alerted clr-i-alert" d="M 26.854 1.144 L 21.134 11.004 C 20.579 11.818 21.114 12.928 22.097 13.001 C 22.142 13.005 22.188 13.006 22.234 13.004 L 33.684 13.004 C 34.669 13.036 35.319 11.991 34.855 11.122 C 34.834 11.081 34.81 11.042 34.784 11.004 L 29.064 1.144 C 28.57 0.299 27.348 0.299 26.854 1.144 Z"/>
  <rect x="0" y="0" width="36" height="36" fill-opacity="0"/>
</svg>
